content/blogs/regnskap/hva-er-aksjonaerlan-til-as/aksjonaerlan-til-as-situasjoner.svg

<svg xmlns="http://www.w3.org/2000/svg" width="800" height="400" viewBox="0 0 800 400"><defs><linearGradient id="a" x1="0%" x2="100%" y1="0%" y2="100%"><stop offset="0%" style="stop-color:#3498db;stop-opacity:1"/><stop offset="100%" style="stop-color:#2980b9;stop-opacity:1"/></linearGradient><linearGradient id="b" x1="0%" x2="100%" y1="0%" y2="100%"><stop offset="0%" style="stop-color:#e74c3c;stop-opacity:1"/><stop offset="100%" style="stop-color:#c0392b;stop-opacity:1"/></linearGradient><linearGradient id="c" x1="0%" x2="100%" y1="0%" y2="100%"><stop offset="0%" style="stop-color:#27ae60;stop-opacity:1"/><stop offset="100%" style="stop-color:#229954;stop-opacity:1"/></linearGradient><linearGradient id="d" x1="0%" x2="100%" y1="0%" y2="100%"><stop offset="0%" style="stop-color:#9b59b6;stop-opacity:1"/><stop offset="100%" style="stop-color:#8e44ad;stop-opacity:1"/></linearGradient></defs><path fill="#f8f9fa" d="M0 0h800v400H0z"/><text x="400" y="30" fill="#2c3e50" font-family="Arial, sans-serif" font-size="24" font-weight="bold" text-anchor="middle">Situasjoner for Aksjonærlån til AS</text><rect width="320" height="140" x="50" y="60" fill="url(#a)" stroke="#2c3e50" stroke-width="2" rx="10"/><text x="210" y="85" fill="#fff" font-family="Arial, sans-serif" font-size="16" font-weight="bold" text-anchor="middle">Oppstartsfinansiering</text><circle cx="100" cy="120" r="20" fill="#fff" stroke="#2c3e50" stroke-width="2"/><path fill="#3498db" d="m90 115 10-10 10 10-10 10Z"/><text x="90" y="135" fill="#3498db" font-family="Arial, sans-serif" font-size="8" font-weight="bold">START</text><text x="140" y="110" fill="#fff" font-family="Arial, sans-serif" font-size="12">• Nystartet selskap</text><text x="140" y="125" fill="#fff" font-family="Arial, sans-serif" font-size="12">• Trenger utstyr/inventar</text><text x="140" y="140" fill="#fff" font-family="Arial, sans-serif" font-size="12">• Før inntektsgenerering</text><text x="140" y="155" fill="#fff" font-family="Arial, sans-serif" font-size="12">• Rask tilgang til kapital</text><rect width="120" height="20" x="70" y="170" fill="#fff" stroke="#2c3e50" rx="3"/><text x="130" y="183" fill="#2c3e50" font-family="Arial, sans-serif" font-size="10" font-weight="bold" text-anchor="middle">Eks: 200 000 kr</text><rect width="320" height="140" x="430" y="60" fill="url(#b)" stroke="#2c3e50" stroke-width="2" rx="10"/><text x="590" y="85" fill="#fff" font-family="Arial, sans-serif" font-size="16" font-weight="bold" text-anchor="middle">Likviditetsutfordring</text><circle cx="480" cy="120" r="20" fill="#fff" stroke="#2c3e50" stroke-width="2"/><path fill="#e74c3c" d="m470 120 10-10 10 10-10 10Z"/><text x="470" y="135" fill="#e74c3c" font-family="Arial, sans-serif" font-size="8" font-weight="bold">CASH</text><text x="520" y="110" fill="#fff" font-family="Arial, sans-serif" font-size="12">• Midlertidig kontantbehov</text><text x="520" y="125" fill="#fff" font-family="Arial, sans-serif" font-size="12">• Sesongvariasjoner</text><text x="520" y="140" fill="#fff" font-family="Arial, sans-serif" font-size="12">• Venter på kundebetalinger</text><text x="520" y="155" fill="#fff" font-family="Arial, sans-serif" font-size="12">• Kortsiktig løsning</text><rect width="120" height="20" x="450" y="170" fill="#fff" stroke="#2c3e50" rx="3"/><text x="510" y="183" fill="#2c3e50" font-family="Arial, sans-serif" font-size="10" font-weight="bold" text-anchor="middle">Eks: 500 000 kr</text><rect width="320" height="140" x="50" y="220" fill="url(#c)" stroke="#2c3e50" stroke-width="2" rx="10"/><text x="210" y="245" fill="#fff" font-family="Arial, sans-serif" font-size="16" font-weight="bold" text-anchor="middle">Ekspansjonsfinansiering</text><circle cx="100" cy="280" r="20" fill="#fff" stroke="#2c3e50" stroke-width="2"/><path fill="#27ae60" d="m85 280 15-15 15 15-15 15Z"/><text x="88" y="295" fill="#27ae60" font-family="Arial, sans-serif" font-size="8" font-weight="bold">GROW</text><text x="140" y="270" fill="#fff" font-family="Arial, sans-serif" font-size="12">• Vekst og utvidelse</text><text x="140" y="285" fill="#fff" font-family="Arial, sans-serif" font-size="12">• Nye investeringer</text><text x="140" y="300" fill="#fff" font-family="Arial, sans-serif" font-size="12">• Økt produksjonskapasitet</text><text x="140" y="315" fill="#fff" font-family="Arial, sans-serif" font-size="12">• Langsiktig finansiering</text><rect width="120" height="20" x="70" y="330" fill="#fff" stroke="#2c3e50" rx="3"/><text x="130" y="343" fill="#2c3e50" font-family="Arial, sans-serif" font-size="10" font-weight="bold" text-anchor="middle">Eks: 1 000 000 kr</text><rect width="320" height="140" x="430" y="220" fill="url(#d)" stroke="#2c3e50" stroke-width="2" rx="10"/><text x="590" y="245" fill="#fff" font-family="Arial, sans-serif" font-size="16" font-weight="bold" text-anchor="middle">Alternativ til Kapitalforhøyelse</text><circle cx="480" cy="280" r="20" fill="#fff" stroke="#2c3e50" stroke-width="2"/><path fill="#9b59b6" d="m470 275 10-5 10 5v10l-10 5-10-5Z"/><text x="475" y="295" fill="#9b59b6" font-family="Arial, sans-serif" font-size="8" font-weight="bold">ALT</text><text x="520" y="270" fill="#fff" font-family="Arial, sans-serif" font-size="12">• Unngå utvanning</text><text x="520" y="285" fill="#fff" font-family="Arial, sans-serif" font-size="12">• Beholder eierstruktur</text><text x="520" y="300" fill="#fff" font-family="Arial, sans-serif" font-size="12">• Enklere prosess</text><text x="520" y="315" fill="#fff" font-family="Arial, sans-serif" font-size="12">• Fleksibel tilbakebetaling</text><rect width="120" height="20" x="450" y="330" fill="#fff" stroke="#2c3e50" rx="3"/><text x="510" y="343" fill="#2c3e50" font-family="Arial, sans-serif" font-size="10" font-weight="bold" text-anchor="middle">Eks: 300 000 kr</text><rect width="700" height="20" x="50" y="375" fill="#ecf0f1" stroke="#bdc3c7" rx="5"/><text x="400" y="388" fill="#2c3e50" font-family="Arial, sans-serif" font-size="12" text-anchor="middle">
    <tspan font-weight="bold">Felles krav:</tspan> Alle situasjoner krever markedsmessige vilkår og korrekt dokumentasjon
  </text></svg>

<svg width="800" height="400" viewBox="0 0 800 400" xmlns="http://www.w3.org/2000/svg">
  <defs>
    <linearGradient id="startupGradient" x1="0%" y1="0%" x2="100%" y2="100%">
      <stop offset="0%" style="stop-color:#3498DB;stop-opacity:1" />
      <stop offset="100%" style="stop-color:#2980B9;stop-opacity:1" />
    </linearGradient>
    <linearGradient id="liquidityGradient" x1="0%" y1="0%" x2="100%" y2="100%">
      <stop offset="0%" style="stop-color:#E74C3C;stop-opacity:1" />
      <stop offset="100%" style="stop-color:#C0392B;stop-opacity:1" />
    </linearGradient>
    <linearGradient id="expansionGradient" x1="0%" y1="0%" x2="100%" y2="100%">
      <stop offset="0%" style="stop-color:#27AE60;stop-opacity:1" />
      <stop offset="100%" style="stop-color:#229954;stop-opacity:1" />
    </linearGradient>
    <linearGradient id="alternativeGradient" x1="0%" y1="0%" x2="100%" y2="100%">
      <stop offset="0%" style="stop-color:#9B59B6;stop-opacity:1" />
      <stop offset="100%" style="stop-color:#8E44AD;stop-opacity:1" />
    </linearGradient>
  </defs>
  

  <rect width="800" height="400" fill="#F8F9FA"/>
  

  <text x="400" y="30" text-anchor="middle" font-family="Arial, sans-serif" font-size="24" font-weight="bold" fill="#2C3E50">Situasjoner for Aksjonærlån til AS</text>
  

  <rect x="50" y="60" width="320" height="140" fill="url(#startupGradient)" stroke="#2C3E50" stroke-width="2" rx="10"/>
  <text x="210" y="85" text-anchor="middle" font-family="Arial, sans-serif" font-size="16" font-weight="bold" fill="#FFF">Oppstartsfinansiering</text>
  

  <circle cx="100" cy="120" r="20" fill="#FFF" stroke="#2C3E50" stroke-width="2"/>
  <path d="M 90 115 L 100 105 L 110 115 L 100 125 Z" fill="#3498DB"/>
  <text x="90" y="135" font-family="Arial, sans-serif" font-size="8" fill="#3498DB" font-weight="bold">START</text>
  

  <text x="140" y="110" font-family="Arial, sans-serif" font-size="12" fill="#FFF">• Nystartet selskap</text>
  <text x="140" y="125" font-family="Arial, sans-serif" font-size="12" fill="#FFF">• Trenger utstyr/inventar</text>
  <text x="140" y="140" font-family="Arial, sans-serif" font-size="12" fill="#FFF">• Før inntektsgenerering</text>
  <text x="140" y="155" font-family="Arial, sans-serif" font-size="12" fill="#FFF">• Rask tilgang til kapital</text>
  

  <rect x="70" y="170" width="120" height="20" fill="#FFF" stroke="#2C3E50" stroke-width="1" rx="3"/>
  <text x="130" y="183" text-anchor="middle" font-family="Arial, sans-serif" font-size="10" font-weight="bold" fill="#2C3E50">Eks: 200 000 kr</text>
  

  <rect x="430" y="60" width="320" height="140" fill="url(#liquidityGradient)" stroke="#2C3E50" stroke-width="2" rx="10"/>
  <text x="590" y="85" text-anchor="middle" font-family="Arial, sans-serif" font-size="16" font-weight="bold" fill="#FFF">Likviditetsutfordring</text>
  

  <circle cx="480" cy="120" r="20" fill="#FFF" stroke="#2C3E50" stroke-width="2"/>
  <path d="M 470 120 L 480 110 L 490 120 L 480 130 Z" fill="#E74C3C"/>
  <text x="470" y="135" font-family="Arial, sans-serif" font-size="8" fill="#E74C3C" font-weight="bold">CASH</text>
  

  <text x="520" y="110" font-family="Arial, sans-serif" font-size="12" fill="#FFF">• Midlertidig kontantbehov</text>
  <text x="520" y="125" font-family="Arial, sans-serif" font-size="12" fill="#FFF">• Sesongvariasjoner</text>
  <text x="520" y="140" font-family="Arial, sans-serif" font-size="12" fill="#FFF">• Venter på kundebetalinger</text>
  <text x="520" y="155" font-family="Arial, sans-serif" font-size="12" fill="#FFF">• Kortsiktig løsning</text>
  

  <rect x="450" y="170" width="120" height="20" fill="#FFF" stroke="#2C3E50" stroke-width="1" rx="3"/>
  <text x="510" y="183" text-anchor="middle" font-family="Arial, sans-serif" font-size="10" font-weight="bold" fill="#2C3E50">Eks: 500 000 kr</text>
  

  <rect x="50" y="220" width="320" height="140" fill="url(#expansionGradient)" stroke="#2C3E50" stroke-width="2" rx="10"/>
  <text x="210" y="245" text-anchor="middle" font-family="Arial, sans-serif" font-size="16" font-weight="bold" fill="#FFF">Ekspansjonsfinansiering</text>
  

  <circle cx="100" cy="280" r="20" fill="#FFF" stroke="#2C3E50" stroke-width="2"/>
  <path d="M 85 280 L 100 265 L 115 280 L 100 295 Z" fill="#27AE60"/>
  <text x="88" y="295" font-family="Arial, sans-serif" font-size="8" fill="#27AE60" font-weight="bold">GROW</text>
  

  <text x="140" y="270" font-family="Arial, sans-serif" font-size="12" fill="#FFF">• Vekst og utvidelse</text>
  <text x="140" y="285" font-family="Arial, sans-serif" font-size="12" fill="#FFF">• Nye investeringer</text>
  <text x="140" y="300" font-family="Arial, sans-serif" font-size="12" fill="#FFF">• Økt produksjonskapasitet</text>
  <text x="140" y="315" font-family="Arial, sans-serif" font-size="12" fill="#FFF">• Langsiktig finansiering</text>
  

  <rect x="70" y="330" width="120" height="20" fill="#FFF" stroke="#2C3E50" stroke-width="1" rx="3"/>
  <text x="130" y="343" text-anchor="middle" font-family="Arial, sans-serif" font-size="10" font-weight="bold" fill="#2C3E50">Eks: 1 000 000 kr</text>
  

  <rect x="430" y="220" width="320" height="140" fill="url(#alternativeGradient)" stroke="#2C3E50" stroke-width="2" rx="10"/>
  <text x="590" y="245" text-anchor="middle" font-family="Arial, sans-serif" font-size="16" font-weight="bold" fill="#FFF">Alternativ til Kapitalforhøyelse</text>
  

  <circle cx="480" cy="280" r="20" fill="#FFF" stroke="#2C3E50" stroke-width="2"/>
  <path d="M 470 275 L 480 270 L 490 275 L 490 285 L 480 290 L 470 285 Z" fill="#9B59B6"/>
  <text x="475" y="295" font-family="Arial, sans-serif" font-size="8" fill="#9B59B6" font-weight="bold">ALT</text>
  

  <text x="520" y="270" font-family="Arial, sans-serif" font-size="12" fill="#FFF">• Unngå utvanning</text>
  <text x="520" y="285" font-family="Arial, sans-serif" font-size="12" fill="#FFF">• Beholder eierstruktur</text>
  <text x="520" y="300" font-family="Arial, sans-serif" font-size="12" fill="#FFF">• Enklere prosess</text>
  <text x="520" y="315" font-family="Arial, sans-serif" font-size="12" fill="#FFF">• Fleksibel tilbakebetaling</text>
  

  <rect x="450" y="330" width="120" height="20" fill="#FFF" stroke="#2C3E50" stroke-width="1" rx="3"/>
  <text x="510" y="343" text-anchor="middle" font-family="Arial, sans-serif" font-size="10" font-weight="bold" fill="#2C3E50">Eks: 300 000 kr</text>
  

  <rect x="50" y="375" width="700" height="20" fill="#ECF0F1" stroke="#BDC3C7" stroke-width="1" rx="5"/>
  <text x="400" y="388" text-anchor="middle" font-family="Arial, sans-serif" font-size="12" fill="#2C3E50">
    <tspan font-weight="bold">Felles krav:</tspan> Alle situasjoner krever markedsmessige vilkår og korrekt dokumentasjon
  </text>
</svg>
